images/gold.svg

<svg height="250" viewBox="0 0 250 250" width="250" xmlns="http://www.w3.org/2000/svg"><path d="m0 125c0 69.039062 55.960938 125 125 125s125-55.960938 125-125-55.960938-125-125-125-125 55.960938-125 125zm0 0" fill="#fdd931"/><path d="m31.25 125c0 51.730469 42.019531 93.75 93.75 93.75s93.75-42.019531 93.75-93.75-42.019531-93.75-93.75-93.75-93.75 42.019531-93.75 93.75zm0 0" fill="#f1b32b"/><path d="m93.847656 125 31.152344 46.828125 31.152344-46.828125-31.152344-46.828125zm0 0" fill="#fdd931"/></svg>

<svg xmlns="http://www.w3.org/2000/svg" xmlns:xlink="http://www.w3.org/1999/xlink" width="250px" height="250px" viewBox="0 0 250 250" version="1.1">
<g id="surface1">
<path style=" stroke:none;fill-rule:nonzero;fill:rgb(99.215686%,85.09804%,19.215687%);fill-opacity:1;" d="M 0 125 C 0 194.039062 55.960938 250 125 250 C 194.039062 250 250 194.039062 250 125 C 250 55.960938 194.039062 0 125 0 C 55.960938 0 0 55.960938 0 125 Z M 0 125 "/>
<path style=" stroke:none;fill-rule:nonzero;fill:rgb(94.509804%,70.19608%,16.862746%);fill-opacity:1;" d="M 31.25 125 C 31.25 176.730469 73.269531 218.75 125 218.75 C 176.730469 218.75 218.75 176.730469 218.75 125 C 218.75 73.269531 176.730469 31.25 125 31.25 C 73.269531 31.25 31.25 73.269531 31.25 125 Z M 31.25 125 "/>
<path style=" stroke:none;fill-rule:nonzero;fill:rgb(99.215686%,85.09804%,19.215687%);fill-opacity:1;" d="M 93.847656 125 L 125 171.828125 L 156.152344 125 L 125 78.171875 Z M 93.847656 125 "/>
</g>
</svg>
